X: 1
T:La Pronelle (M. Perrone)
C:Willem Schott (Kremsmnster 2000)
M:3/4
L:1/8
K:C
gf|:e2 "G"d2 gf|e2 "G"d2  cd|ef ed cA|(3eee ee gf|\
e2 "G"d2   gf|e2 "G"d2  cd|ef ed cB|A2 (3EAc ed||
c2 (3EAc ed|c2 AG AB|cd eg ec|dc AG ed|\
c2 (3EAc ed|c2 AG AB|ce ge dc|A6||
